X:374
T: ES BLIES EIN JAEGER
N: F0661B
O: Europa, Mitteleuropa, Deutschland
R: Staende -, Jaeger - Lied, Liebe, Tod
M: 4/4
L: 1/8
K: A
E2 | A2A2ABc2 | cBA2B4
BBBBB2AB | c4z2
AB | cccce2c2 | BABcd4
c3dc2A2 | B3cB2
e2 | cccccBB2 | A4z2

